openmetadata-ui/src/main/resources/ui/src/assets/svg/logo-monogram.svg

<svg width="25" height="30" viewBox="0 0 250 300" fill="none" xmlns="http://www.w3.org/2000/svg">
<path d="M0.00391658 63H0V238H0.00391658C0.541243 272.288 56.298 300 125 300C193.702 300 249.459 272.288 249.996 238H250V63H249.996C249.459 97.2876 193.702 125 125 125C56.298 125 0.541243 97.2876 0.00391658 63Z" fill="url(#paint0_linear_4704_3049)"/>
<path d="M247.5 63C247.5 78.6532 234.64 93.5093 212.277 104.601C190.07 115.616 159.217 122.5 125 122.5C90.7834 122.5 59.9295 115.616 37.7225 104.601C15.3602 93.5093 2.5 78.6532 2.5 63C2.5 47.3468 15.3602 32.4907 37.7225 21.399C59.9295 10.3843 90.7834 3.5 125 3.5C159.217 3.5 190.07 10.3843 212.277 21.399C234.64 32.4907 247.5 47.3468 247.5 63Z" fill="url(#paint1_linear_4704_3049)" stroke="#35198E" stroke-width="5"/>
<path fill-rule="evenodd" clip-rule="evenodd" d="M125 125C194.036 125 250 97.0178 250 62.5C250 27.9822 194.036 0 125 0C55.9644 0 0 27.9822 0 62.5C0 97.0178 55.9644 125 125 125ZM125.5 94.5C160.018 94.5 188 80.5089 188 63.25C188 45.9911 160.018 32 125.5 32C90.9822 32 63 45.9911 63 63.25C63 80.5089 90.9822 94.5 125.5 94.5Z" fill="#8D6AF1"/>
<path d="M85 214.793V254.384C85 258.223 80.8526 260.63 77.5193 258.725L45.5193 240.44C43.9614 239.549 43 237.893 43 236.098V141.887C43 137.988 47.2635 135.589 50.5956 137.613L121.936 180.942C123.514 181.901 125.492 181.912 127.081 180.97L200.45 137.476C203.783 135.5 208 137.902 208 141.777V237.975C208 239.835 206.968 241.541 205.32 242.404L173.32 259.166C169.991 260.91 166 258.495 166 254.737V214.577C166 210.747 161.869 208.339 158.536 210.226L127.026 228.07C125.464 228.954 123.548 228.934 122.006 228.016L92.5565 210.496C89.2236 208.513 85 210.915 85 214.793Z" fill="white"/>
<defs>
<linearGradient id="paint0_linear_4704_3049" x1="125" y1="90" x2="125" y2="300" gradientUnits="userSpaceOnUse">
<stop stop-color="#35198E"/>
<stop offset="1" stop-color="#8D6AF1"/>
</linearGradient>
<linearGradient id="paint1_linear_4704_3049" x1="125" y1="1" x2="125" y2="125" gradientUnits="userSpaceOnUse">
<stop stop-color="#8D6AF1" stop-opacity="0.2"/>
<stop offset="1" stop-color="white"/>
</linearGradient>
</defs>
</svg>

<svg xmlns="http://www.w3.org/2000/svg" width="25" height="30" fill="none" viewBox="0 0 250 300"><path fill="url(#a)" d="M.004 63H0v175h.004C.54 272.288 56.298 300 125 300s124.459-27.712 124.996-62H250V63h-.004c-.537 34.288-56.294 62-124.996 62S.541 97.288.004 63Z"/><path fill="url(#b)" stroke="#35198E" stroke-width="5" d="M247.5 63c0 15.653-12.86 30.51-35.223 41.601C190.07 115.616 159.217 122.5 125 122.5s-65.07-6.884-87.278-17.899C15.36 93.509 2.5 78.653 2.5 63c0-15.653 12.86-30.51 35.222-41.601C59.93 10.384 90.784 3.5 125 3.5c34.217 0 65.07 6.884 87.277 17.899C234.64 32.491 247.5 47.347 247.5 63Z"/><path fill="#8D6AF1" fill-rule="evenodd" d="M125 125c69.036 0 125-27.982 125-62.5S194.036 0 125 0 0 27.982 0 62.5 55.964 125 125 125Zm.5-30.5c34.518 0 62.5-13.991 62.5-31.25S160.018 32 125.5 32 63 45.991 63 63.25 90.982 94.5 125.5 94.5Z" clip-rule="evenodd"/><path fill="#fff" d="M85 214.793v39.591c0 3.839-4.147 6.246-7.48 4.341l-32-18.285a5.001 5.001 0 0 1-2.52-4.342v-94.211c0-3.899 4.264-6.298 7.596-4.274l71.34 43.329a4.998 4.998 0 0 0 5.145.028l73.369-43.494c3.333-1.976 7.55.426 7.55 4.301v96.198a4.999 4.999 0 0 1-2.68 4.429l-32 16.762c-3.329 1.744-7.32-.671-7.32-4.429v-40.16c0-3.83-4.131-6.238-7.464-4.351l-31.51 17.844a5 5 0 0 1-5.02-.054l-29.45-17.52c-3.332-1.983-7.556.419-7.556 4.297Z"/><defs><linearGradient id="a" x1="125" x2="125" y1="90" y2="300" gradientUnits="userSpaceOnUse"><stop stop-color="#35198E"/><stop offset="1" stop-color="#8D6AF1"/></linearGradient><linearGradient id="b" x1="125" x2="125" y1="1" y2="125" gradientUnits="userSpaceOnUse"><stop stop-color="#8D6AF1" stop-opacity=".2"/><stop offset="1" stop-color="#fff"/></linearGradient></defs></svg>
